X:1
T:077 - O Melhor Amigo
T:Letra: Peter Philip Bilhorn (1861-1936)
T:Trad.: João Gomes da Rocha (1861-1947)
T:Música: Peter Philip Bilhorn (1861-1936)
L:1/4
M:4/4
Q:1/4=100
K:G
V:1
L:1/16
D3G | "G"B4 B3^A B4=c4 | "Am"E8 A4 G3G | "D7"F3G F3E D4c4 | "G"B8 z4 D3E | D3B B3c B4 "G7"d3d | "C"d3c c3c "Am"E4 d3d | "C"d4 c3c "D7"F4 "G/D"B4 | "D7"A8 "G"G4 z2 || d2 | "G"d4 B3c d4 "C"e4 | "G/D"d8 "D7"c4 z2c2 | c4 A3B c4 d4 | c8 "G"B4 d2d2 | d2B2 G2A2 B4 d2d2 | "C"e2c2 "E"A2B2 "Am"Hc4 (3:2:2"C#dim"He4 e2 | "G/D"d4 B3G B6 c2 | "D7"A8 "G"HG4 |]
w: 1.~Sei queoa-mi-go me-lhor é Cris-to; Quan-doa tem-pes-ta-deas-sal-taa fé, Pron-toes-ten-dea su-a mão, Tran-qui-li-zao co-ra-ção. Sim, oa-mi-go me-lhor é Cris-to.     Je-sus éo me-lhor a-mi-go.    Je-sus éo me-lhor a-mi-go.    Sim, re-preen-de com dul-çor,             E mea-ni-ma com vi-gor.    Sim, oa-mi-go me-lhor é Cris-to.
w: 2.~Oh, quea-mi-go pre-cio-soé Cris-to! Ne-leen-con-troa-mor, con-so-loe paz. Em seu bra-çoes-pe-ra-rei; Ne-nhum gol-pe te-me-rei. Sim, oa-mi-go me-lhor é Cris-to.
w: 3.~Ao pas-sar pe-lo va-lees-cu-ro, E che-gan-doàs á-guas do Jor-dão, Não re-cei-o, pois Je-sus, Sal-vo,à pá-tria me con-duz. Sim, oa-mi-go me-lhor é Cris-to.
w: 4.~Na man-são e-ter-nal eu jun-to Com os san-tos, trans-for-ma-dos já, Es-te can-to de lou-vor En-toa-re-mos ao Se-nhor; Sem-preoa-mi-go me-lhor é Cris-to!     Je-sus éo me-lhor a-mi-go,    Je-sus éo me-lhor a-mi-go.    Do pe-ca-do me sal-vou,                     Pa-raos céus me pre-pa-rou.    Sim, oa-mi-go me-lhor é Cris-to.
W: 
W:
W: 1. Sei que o amigo melhor é Cristo;
W: Quando a tempestade assalta a fé,
W: Pronto estende a sua mão,
W: Tranquiliza o coração.
W: Sim, o amigo melhor é Cristo.
W: 
W:    (Estribilho 1a.,2a. e 3a. estrofes)
W:    Jesus é o melhor amigo.
W:    Jesus é o melhor amigo.
W:    Sim, repreende com dulçor,         
W:    E me anima com vigor.
W:    Sim, o amigo melhor é Cristo.
W: 
W: 2. Oh, que amigo precioso é Cristo!
W: Nele encontro amor, consolo e paz.
W: Em seu braço esperarei;
W: Nenhum golpe temerei.
W: Sim, o amigo melhor é Cristo.
W: 
W:
W:
W: 3. Ao passar pelo vale escuro,
W: E chegando às águas do Jordão,
W: Não receio, pois Jesus,
W: Salvo, à pátria me conduz.
W: Sim, o amigo melhor é Cristo.
W: 
W: 4. Na mansão eternal eu junto
W: Com os santos, transformados já,
W: Este canto de louvor
W: Entoaremos ao Senhor;
W: Sempre o amigo melhor é Cristo!
W: 
W:    (Final)
W:    Jesus é o melhor amigo,
W:    Jesus é o melhor amigo.
W:    Do pecado me salvou,                 
W:    Para os céus me preparou.
W:    Sim, o amigo melhor é Cristo.
W: 
W: 





%wordsfont Times-Roman 13.0
%vocalfont Times-Roman 13.0
